!!!!SEGMENT: pl-cz--ii-87--003-004_grim-jozef--msza-druga-credo.krn
!!!cenid: 18xx:1183
!!!COM: Grim, Józef
!!!COM-rismid: pe30003883
!!!CDT: ~1800-~1899
!!!CNT:
!!!OPR: Msza druga
!!!OTL: Credo
!!!OMV: 004
!!!PDT: 1888
!!!AGN: Sacred; Mass
!!!SMS-siglum: PL-CZ
!!!SMS-shelfmark: II-87
!!!SMS-shelfwork: 003-004 M
!!!SMS-variant:
!!!SMS-altvar:
!!!NIFC-rismid: 300033226
!!!URL-scan: http://repozytorium.nifc.pl/skany/pl-cz-nut--ii-87
!!!ONB-nifc: UWAGA: części Mszy: Kirie, Gloria, Graduale, Credo, Offertorium, Sanctus, Po podniesieniu, Agnus
!!!AIN: 1 organ 1 vox
!!!key: C
!!!OMD: Allegro moderato
**kern	**kern	**kern	**text
*part2	*part2	*part1	*part1
*staff3	*staff2	*staff1	*staff1
*I"Organ	*I"Organ	*I"Głos	*
*Iorgan	*Iorgan	*Ivox	*
*ICklav	*ICklav	*ICvox	*
*IGacmp	*IGacmp	*IGsolo	*
*clefF4	*clefG2	*clefG2	*
*k[]	*k[]	*k[]	*
*C:	*C:	*C:	*
*M4/4	*M4/4	*M4/4	*
*met(c)	*met(c)	*met(c)	*
=1	=1	=1	=1
*^	*	*	*
1c	1r	1r	1r	.
=2	=2	=2	=2	=2
*	*	*^	*	*
2c 2A\	2ryy	2r	2e\	1r	.
2c/	2F#X\	2a/	2d#X\	.	.
=3	=3	=3	=3	=3	=3
N[<2c/	1G	[1g	2e\	1r	.
2r	.	.	2e-X [2c\N]	.	.
*v	*v	*	*	*	*
=4	=4	=4	=4	=4
[1G (<1GG	1g] 1d	2c\]	1r	.
.	.	2B\	.	.
*	*v	*v	*	*
=5	=5	=5	=5
*	*	*^	*
1G] 1C)	1g 1e 1c	4r	4ryy	.
.	.	4g/	4e\	Wie-
.	.	4g/	4e\	-rzy-
.	.	4g/	4e\	-my
=6	=6	=6	=6	=6
*	*^	*	*	*
!	!	!	!LO:N:vis=2.	!	!
[<2A 2AA\	1cc	2e N[>2c\	2cc/	2e\	w Bo-
2cN] 2A\]	.	2f\	4cc/	4f\	-ga
.	.	.	4cc/	4f\	jed-
=7	=7	=7	=7	=7	=7
1c 1A-X	1dd	2.f\	2dd/	2f\	-ne-
.	.	.	4dd/	4f\	-go
.	.	4g\	4dd/	4g\	na
=8	=8	=8	=8	=8	=8
1c 1C	2ee/	2g\	2ee/	2g\	wie-
.	2cc/	2e\	2cc/	2e\	-ki
!!LO:LB:g=original
=9	=9	=9	=9	=9	=9
1E	4r	N[2c\	4r	1r	.
*	*	*	*	*	*above
.	4g/	.	4g/	.	co
.	4cc/	[2g\	4cc/	.	ka-
.	4b/	.	4b/	.	-rze
=10	=10	=10	=10	=10	=10
*	*	*^	*	*	*^
*	*	*	*	*	*	*	*below
1F	2a/	2g\]	4c\N]	2a/	4r	zbro-	.
.	.	.	4c\	.	4c\	.	co
.	2a/	2ryy	4f\	4a/	4f\	-dnie	kar-
.	.	.	4e\	4a/	4e\	a	-ze
=11	=11	=11	=11	=11	=11	=11	=11
1F#X	4a/	4ryy	1d	2a/	4d\	cno-	zbro-
.	4a/	2.a\	.	.	4d\	.	-dnie
.	4dd/	.	.	4dd/	4r	-ty	.
.	4cc/	.	.	4cc/	4r	na-	.
*	*	*v	*v	*	*	*	*
=12	=12	=12	=12	=12	=12	=12
2G\	2cc 2a/	4d\	2cc/	4r	-gra-	.
.	.	4d\	.	4d\	.	cno-
4GG/	2b 2g/	2ryy	2b/	4g\	-dza	-ty
8BB/L	.	.	.	4g\	.	na-
8D/J	.	.	.	.	.	.
*	*	*	*	*	*v	*v
=13	=13	=13	=13	=13	=13
!	!LO:N:vis=2	!	!	!	!
4G\	2.g/	2.B\	4r	8g\	-gra-
.	.	.	.	8g\	.
4F\	.	.	4g/	4g\	-dza
4E\	.	.	4g/	4g\	s
4D\	4f/	4c\	4g/	4g\	was
=14	=14	=14	=14	=14	=14
4C/	1cc	1e	2cc/	2e\	je-
8c\L	.	.	.	.	.
8B\J	.	.	.	.	.
4A\	.	.	4cc/	4e\	-go
4G\	.	.	4cc/	4e\	i-
!!LO:PB:g=original
=15	=15	=15	=15	=15	=15
!	!LO:N:vis=1	!	!	!	!
4F\	2dd/	2cc 2a\	2dd/	2a\	-stnie-
8E\L	.	.	.	.	.
8D\J	.	.	.	.	.
4G\	2b/	4g\	4dd/	4g\	-je
4FF/	.	4f\	4dd/	4f\	o-
=16	=16	=16	=16	=16	=16
*	*	*^	*	*	*
4GG#X/	1ee	4b\	2e\	1ee	4e\	-pie-
4E\	.	4g#X\	.	.	4g#X\	.
4F#X\	.	4a\	2ryy	.	4a\	.
4G#X\	.	4b\	.	.	4b\	.
*	*	*v	*v	*	*	*
=17	=17	=17	=17	=17	=17
4A\	2.cc/	2.a 2.e\	2cc/	2a\	-ki
4E\	.	.	.	.	.
4AA/	.	.	4r	4r	.
4r	4cc/	4r	4cc/	4c\	w mi-
*	*v	*v	*	*	*
=18	=18	=18	=18	=18
4B-X\	1cc 1g 1e	2cc/	2e\	-ło-
4G\	.	.	.	.
4E\	.	2cc/	2e\	-sci
4BB-X/	.	.	.	.
=19	=19	=19	=19	=19
*^	*^	*	*	*
4AA/	4ryy	2cc/	2.f\	4cc/	4f\	je-
4ryy	2A\	.	.	4cc/	4f\	-go
4c/	.	4ff/	.	4ff/	4f\	i
4Bn/	4G#X\	4dd/	4f\	4dd/	4f\	mą-
=20	=20	=20	=20	=20	=20	=20
2B-X/	2Gn\	4cc/	2f\	(4cc/	2f\	-dro-
.	.	4cc#X/	.	4cc#X/)	.	.
4B-/	2C\	4dd/	2e\	4dd/	2e\	-ści
4c/	.	4b-X/	.	4b-X/	.	.
*v	*v	*	*	*	*	*
!!LO:LB:g=original
=21	=21	=21	=21	=21	=21
4F\	2b-X/	2e 2c\	2b/	2g\	wła-
4C/	.	.	.	.	.
4FF/	4a/	4f 4c\	4a/	4f\	-dza
4F\	4a/	4f 4c\	4a/	4f\	wmi-
=22	=22	=22	=22	=22	=22
*^	*	*	*	*	*
4r	2GG\	2g 2f 2B/	2ryy	2g/	2f\	-ło-
[<4G/	.	.	.	.	.	.
4A/	2G\]	2dd/	4f\	2dd/	4f\	-sci
4B/	.	.	4g\	.	4g\	.
=23	=23	=23	=23	=23	=23	=23
4c/	4C\	4ee/	4g\	4ee/	4g\	je-
4G#X/	4ryy	4dd/	4b 4f\	4dd/	4f\	-go
2ryy	4A\	4cc/	4a 4e\	4cc/	4e\	i
.	4E\	4b/	4g#X 4d\	4b/	4d\	mą-
*v	*v	*	*	*	*	*
=24	=24	=24	=24	=24	=24
4F\	2a/	4a 4c\	4a/	4c\	-dro-
4D\	.	(>4f 4d\	4a/	4f\	-sci
4G\	2ryy	4d\)	2b/	2f\	wła
4GG/	.	4f\	.	.	.
*	*v	*v	*	*	*
=25	=25	=25	=25	=25
*^	*	*	*	*
2C/	2ryy	2cc 2g 2e/	2cc/	2e\	[-dza]
[2c\	2r	2r	2r	2r	.
*	*	*	*v	*v	*
=26	=26	=26	=26	=26
*	*	*^	*	*
(2c/]	2A\	2ryy	2e\	1r	.
(>2F#X/)	2ryy	2a/	2d#X\	.	.
=27	=27	=27	=27	=27	=27
2c/)	[>1G	1g	2e\	1r	.
2ryy	.	.	2e-X 2c\	.	.
*v	*v	*	*	*	*
!!LO:LB:g=original
=28	=28	=28	=28	=28
1G] 1GG	1g 1d	2c\	1r	.
.	.	2B\	.	.
=29	=29	=29	=29	=29
*^	*	*	*	*
2G/	2C\	2g 2e/	2c\	1r	.
2ryy	2C\	2e 2c 2G/	2ryy	.	.
*	*	*v	*v	*	*
*v	*v	*	*	*
=30	=30	=30	=30
2C 2CC\	2c 2G< 2E</	1r	.
2r	2r	.	.
==	==	==	==
*-	*-	*-	*-
!!!system-decoration: <s1>(s2,s3)
!!!RDF**kern: > = above
!!!RDF**kern: < = below
!!!RDF**kern: N = linked
!!!ENC: Berenika Jozajtis
!!!END: 2020-11-07
!!!ENC: Marta Lawrence
!!!END: 2021-11-14
